X:1
T:Title
%%score { ( 1 4 ) | ( 2 3 ) }
L:1/8
Q:1/4=100
M:4/4
K:F
V:1 treble nm="Grand Piano"
V:4 treble 
V:2 bass 
V:3 bass 
V:1
 A2 CB A3 G | FdcA [FA]2 [EG]2 | [EB]2 [EG]F E3 D | CDEB A4 | A2 CB A3 G | Ffed c2 A2 | %6
w: John~R.~Sweney * * * *||||||
 [EG]2 [FA][FB] [Fc][Fd][DF][DFG] | [CFA]3 [B,EG] F4 | F2 ED A3 [FA] | [EB]E[^CA][CG] [EG]2 [DF]2 | %10
w: ||||
 [DF]2 [EG][E_A] [F=A]3 [Fd] | [Fc][EG][Ec][EB] [FA]4 | [FA]2 [Af][Ge] [Fd]3 [Fd] | %13
w: |||
 [Ee][Ed][EG][Ed] [Fd]2 [Fc]2 | [Ec]2 [G=B][FA] [EG][Ec]GF | E2 [=B,D]2 C4 |[M:6/8] A3 d2 A | %17
w: ||||
 [Ec][EB][_EA] [=EB]3 | [EB]3 [Ee]2 [Ed] | dc=B c3 | c3 [Af]2 A | dc[CFA] [A,CF]3 | %22
w: |||||
 [A,FA]3 [=B,DG]2 [G,B,F] | z3 .G3 | A3 d2 A | [Ec][EB][_EA] [=EB]3 | A3 d2 [Ge] | z3 e3 | %28
w: ||||||
 [Af]3 A2 d | c2 A F2 [=B,FG] | [CFA][A,C][DFB] [CFA]2 [B,EG] | [A,F]6 |] %32
w: ||||
V:2
 [F,CF]2 [F,A,][F,DF] [F,CF]3 [F,B,C] | [F,A,C][F,B,F][F,A,F][F,CF] [C,C]2 [C,C]2 | %2
 [C,G,]2 [C,B,][C,A,] [C,G,C]3 [C,F,B,] | [C,E,B,][C,F,B,][C,G,B,][E,G,C] [F,C]4 | %4
 [F,CF]2 [F,A,][F,DF] [F,CF]3 [F,B,C] | [F,A,C][F,DF][F,CF][F,B,F] [F,A,F]2 [F,CF]2 | %6
 [C,C]2 [F,C][D,B,] [A,,F,][B,,F,]=B,,B,, | C,3 C, [F,A,C]4 | %8
 [D,A,D]2 [D,G,D][D,F,] [D,F,D]3 [D,A,] | [^C,G,][C,G,][A,,E,][A,,A,] [D,A,]2 [D,A,]2 | %10
 [D,A,]2 [C,C][C,C] [F,C]3 [B,,B,] | [C,A,][C,B,][C,G,][C,C] [F,C]4 | %12
 [F,C]2 [F,C][A,^C] [B,D]3 [B,,B,] | [C,G,][B,,G,][C,B,][C,B,] [F,B,]2 [F,A,]2 | %14
 [C,G,]2 [C,G,][C,C] [C,C][C,C][E,CE][F,A,D] | [G,C]2 [G,,F,]2 [C,E,]4 | %16
[M:6/8] [F,CF]3 [F,A,F]2 [F,A,F] | [C,G,][C,G,][C,^F,] [C,G,]3 | [C,G,]3 [C,B,]2 [C,B,] | %19
 [F,B,F][F,A,F][F,_A,F] [F,=A,F]3 | [F,A,F]3 [F,C]2 [F,CF] | .B,3 z3 | D,3 G,,2 G,, | C,2 C, C,3 | %24
 [F,CF]3 [F,A,F]2 [F,A,F] | [C,G,][C,G,][C,^F,] [C,G,]3 | [F,C]3 [F,A,F]2 [E,^C] | %27
 [D,D][D,D][D,D][K:treble] [A,^CG]2 [G,=C] | [F,C]3 [F,CF]2 [F,B,F] | [F,A,F]2 [F,CF] [D,=B,]2 D, | %30
 C,C,C, C,2 C, | F,6 |] %32
V:3
 x8 | x8 | x8 | x8 | x8 | x8 | x8 | x8 | x8 | x8 | x8 | x8 | x8 | x8 | x8 | x8 |[M:6/8] x6 | x6 | %18
 x6 | x6 | x6 | [F,F]-[F,A,F]F, F,3 | x6 | x6 | x6 | x6 | x6 | x3[K:treble] x3 | x6 | x6 | x6 | %31
 x6 |] %32
V:4
 x8 | x8 | x8 | x8 | x8 | x8 | x8 | x8 | x8 | x8 | x8 | x8 | x8 | x8 | x8 | x8 |[M:6/8] x6 | x6 | %18
 x6 | x6 | x6 | x6 | x6 | [G,CE]2 [G,DF] [CE]2- [CE_A] | x6 | x6 | x6 | [Af][Ge][Fd] z2 B | x6 | %29
 x6 | x6 | x6 |] %32

